svg/building/egyptian_pyramids_line.svg

<?xml version="1.0" encoding="UTF-8"?>
<svg width="24px" height="24px" viewBox="0 0 24 24" version="1.1" xmlns="http://www.w3.org/2000/svg" xmlns:xlink="http://www.w3.org/1999/xlink">
    <title>egyptian_pyramids_line</title>
    <g id="页面-1" stroke="none" stroke-width="1" fill="none" fill-rule="evenodd">
        <g id="Building" transform="translate(-816.000000, -96.000000)">
            <g id="egyptian_pyramids_line" transform="translate(816.000000, 96.000000)">
                 <path d="M24,0 L24,24 L0,24 L0,0 L24,0 Z M12.5934901,23.257841 L12.5819402,23.2595131 L12.5108777,23.2950439 L12.4918791,23.2987469 L12.4918791,23.2987469 L12.4767152,23.2950439 L12.4056548,23.2595131 C12.3958229,23.2563662 12.3870493,23.2590235 12.3821421,23.2649074 L12.3780323,23.275831 L12.360941,23.7031097 L12.3658947,23.7234994 L12.3769048,23.7357139 L12.4804777,23.8096931 L12.4953491,23.8136134 L12.4953491,23.8136134 L12.5071152,23.8096931 L12.6106902,23.7357139 L12.6232938,23.7196733 L12.6232938,23.7196733 L12.6266527,23.7031097 L12.609561,23.275831 C12.6075724,23.2657013 12.6010112,23.2592993 12.5934901,23.257841 L12.5934901,23.257841 Z M12.8583906,23.1452862 L12.8445485,23.1473072 L12.6598443,23.2396597 L12.6498822,23.2499052 L12.6498822,23.2499052 L12.6471943,23.2611114 L12.6650943,23.6906389 L12.6699349,23.7034178 L12.6699349,23.7034178 L12.678386,23.7104931 L12.8793402,23.8032389 C12.8914285,23.8068999 12.9022333,23.8029875 12.9078286,23.7952264 L12.9118235,23.7811639 L12.8776777,23.1665331 C12.8752882,23.1545897 12.8674102,23.1470016 12.8583906,23.1452862 L12.8583906,23.1452862 Z M12.1430473,23.1473072 C12.1332178,23.1423925 12.1221763,23.1452606 12.1156365,23.1525954 L12.1099173,23.1665331 L12.0757714,23.7811639 C12.0751323,23.7926639 12.0828099,23.8018602 12.0926481,23.8045676 L12.108256,23.8032389 L12.3092106,23.7104931 L12.3186497,23.7024347 L12.3186497,23.7024347 L12.3225043,23.6906389 L12.340401,23.2611114 L12.337245,23.2485176 L12.337245,23.2485176 L12.3277531,23.2396597 L12.1430473,23.1473072 Z" id="MingCute" fill-rule="nonzero"></path>
                <path d="M15.8437,6.46312 C15.66,6.17453 15.3416,5.99984 14.9995,5.99999989 C14.6575,6.00016 14.3392,6.17516 14.1558,6.46392 L11.5196,10.6152 L9.78995,8.38682 C9.60063,8.14292 9.30925,8.00015 9.00049,7.99999989 C8.69173,7.99985 8.40022,8.14234 8.21066,8.38606 L1.21066,17.3861 C0.976171,17.6875 0.933889,18.0963 1.10169,18.4394 C1.2695,18.7824 1.61807,19.000075 2.00001,19.000075 L15.9906,19.000075 C15.9973,19.000075 16.0041,19.000075 16.0109,19.000075 L21.9999997,19.000075 C22.365,19.000075 22.701,18.8012 22.8766,18.4812 C23.0522,18.1613 23.0396,17.771 22.8437,17.4631 L15.8437,6.46312 Z M16.4891,17 L20.1783,17 L16.2493,10.8258 L15.5614,15.6414 C15.555,15.6861 15.5458,15.7296 15.5339,15.7719 L16.4891,17 Z M14.3666,9.86286 L12.8255,12.2896 L13.8346,13.587 L14.3666,9.86286 Z M10.8712,13.0346 C10.8504,13.0124 10.8305,12.9891 10.8116,12.9647 L9.8373,11.7095 L8.32573,17 L13.9554,17 L10.8712,13.0346 Z M6.2457,17 L7.52373,12.5269 L4.04465,17 L6.2457,17 Z" id="形状" fill="#09244B"></path>
            </g>
        </g>
    </g>
</svg>

<svg xmlns="http://www.w3.org/2000/svg" width="24" height="24"><g fill="none" fill-rule="evenodd"><path d="M24 0v24H0V0h24ZM12.593 23.258l-.011.002-.071.035-.02.004-.014-.004-.071-.035c-.01-.004-.019-.001-.024.005l-.004.01-.017.428.005.02.01.013.104.074.015.004.012-.004.104-.074.012-.016.004-.017-.017-.427c-.002-.01-.009-.017-.017-.018Zm.265-.113-.013.002-.185.093-.01.01-.003.011.018.43.005.012.008.007.201.093c.012.004.023 0 .029-.008l.004-.014-.034-.614c-.003-.012-.01-.02-.02-.022Zm-.715.002a.023.023 0 0 0-.027.006l-.006.014-.034.614c0 .012.007.02.017.024l.015-.002.201-.093.01-.008.004-.011.017-.43-.003-.012-.01-.01-.184-.092Z"/><path fill="#09244B" d="M15.844 6.463a1 1 0 0 0-1.688 0l-2.636 4.152-1.73-2.228a1 1 0 0 0-1.58 0l-7 9A1 1 0 0 0 2 19h20a1 1 0 0 0 .844-1.537l-7-11ZM16.489 17h3.69l-3.93-6.174-.688 4.815a1.01 1.01 0 0 1-.027.13L16.489 17Zm-2.122-7.137-1.542 2.427 1.01 1.297.532-3.724Zm-3.496 3.172a.98.98 0 0 1-.06-.07l-.974-1.255L8.326 17h5.63l-3.085-3.965ZM6.246 17l1.278-4.473L4.044 17h2.202Z"/></g></svg>
